ExpEYES17/UserManual/fr/rst/exp/schematics/driven-pendulum.svg

<?xml version="1.0" encoding="UTF-8" standalone="no"?>
<svg
   xmlns:dc="http://purl.org/dc/elements/1.1/"
   xmlns:cc="http://creativecommons.org/ns#"
   xmlns:rdf="http://www.w3.org/1999/02/22-rdf-syntax-ns#"
   xmlns:svg="http://www.w3.org/2000/svg"
   xmlns="http://www.w3.org/2000/svg"
   xmlns:sodipodi="http://sodipodi.sourceforge.net/DTD/sodipodi-0.dtd"
   xmlns:inkscape="http://www.inkscape.org/namespaces/inkscape"
   version="1.1"
   id="driven-pendulum"
   width="100%"
   height="100%"
   viewBox="-6 -6 534 230"
   sodipodi:docname="driven-pendulum.svg"
   inkscape:export-filename="/home/georgesk/developpement/expeyes/expeyes/ExpEYES17/UserManual/fr/rst/exp/schematics/driven-pendulum.png"
   inkscape:export-xdpi="54.339622"
   inkscape:export-ydpi="54.339622"
   inkscape:version="0.92.2 (5c3e80d, 2017-08-06)">
  <metadata
     id="metadata61">
    <rdf:RDF>
      <cc:Work
         rdf:about="">
        <dc:format>image/svg+xml</dc:format>
        <dc:type
           rdf:resource="http://purl.org/dc/dcmitype/StillImage" />
        <dc:title></dc:title>
      </cc:Work>
    </rdf:RDF>
  </metadata>
  <defs
     id="defs59" />
  <sodipodi:namedview
     pagecolor="#ffffff"
     bordercolor="#666666"
     borderopacity="1"
     objecttolerance="10"
     gridtolerance="10"
     guidetolerance="10"
     inkscape:pageopacity="0"
     inkscape:pageshadow="2"
     inkscape:window-width="1668"
     inkscape:window-height="1013"
     id="namedview57"
     showgrid="false"
     inkscape:zoom="1.9588015"
     inkscape:cx="267"
     inkscape:cy="115"
     inkscape:window-x="0"
     inkscape:window-y="0"
     inkscape:window-maximized="1"
     inkscape:current-layer="driven-pendulum" />
  <desc
     id="desc2">
XCircuit Version 3.7
File &quot;driven-pendulum.ps&quot; Page 1
</desc>
  <path
     style="fill:none;stroke:#000000;stroke-width:2;stroke-linecap:round;stroke-linejoin:bevel"
     inkscape:connector-curvature="0"
     id="path4"
     d="m 192,128 v -16 h 96 v 16 z" />
  <path
     style="fill:none;stroke:#000000;stroke-width:2;stroke-linecap:round;stroke-linejoin:bevel"
     inkscape:connector-curvature="0"
     id="path6"
     d="m 192,192 v 16 h 96 v -16 z" />
  <path
     style="fill:none;stroke:#000000;stroke-width:2;stroke-linecap:round;stroke-linejoin:bevel"
     inkscape:connector-curvature="0"
     id="path8"
     d="m 352,32 v 96" />
  <path
     style="fill:none;stroke:#000000;stroke-width:2;stroke-linecap:round;stroke-linejoin:bevel"
     inkscape:connector-curvature="0"
     id="path10"
     d="m 336,128 v 64 h 32 v -64 z" />
  <path
     style="fill:none;stroke:#000000;stroke-width:2;stroke-linecap:round;stroke-linejoin:bevel"
     inkscape:connector-curvature="0"
     id="path12"
     d="m 336,32 h 32" />
  <text
     font-size="40"
     id="text16"
     style="font-size:40px;font-family:Helvetica;fill:#000000;stroke:none"
     x="35.193748"
     y="109.86">
    <tspan
       x="35.193748"
       y="109.86"
       id="tspan14">SQ1</tspan>
  </text>
  <text
     font-size="40"
     id="text22"
     style="font-size:40px;font-family:Helvetica;fill:#000000;stroke:none"
     x="27.780001"
     y="190.58">
    <tspan
       x="27.780001"
       y="190.58"
       id="tspan20">GND</tspan>
  </text>
  <path
     style="fill:none;stroke:#000000;stroke-width:2;stroke-linecap:round;stroke-linejoin:bevel"
     inkscape:connector-curvature="0"
     id="path26"
     d="m 16,144 v 64 h 112 v -64 z" />
  <path
     style="fill:none;stroke:#000000;stroke-width:2;stroke-linecap:round;stroke-linejoin:bevel"
     inkscape:connector-curvature="0"
     id="path28"
     d="M 192,192 H 128" />
  <path
     style="fill:none;stroke:#000000;stroke-width:2;stroke-linecap:round;stroke-linejoin:bevel"
     inkscape:connector-curvature="0"
     id="path30"
     d="m 16,64 v 64 H 128 V 64 Z" />
  <path
     style="fill:none;stroke:#000000;stroke-width:2;stroke-linecap:round;stroke-linejoin:bevel"
     inkscape:connector-curvature="0"
     id="path32"
     d="M 192,112 H 128" />
  <text
     font-size="40"
     id="text36"
     style="font-size:40px;font-family:Helvetica;fill:#000000;stroke:none"
     x="176"
     y="96">
    <tspan
       x="176"
       y="96"
       id="tspan34">Bobine</tspan>
  </text>
  <g
     id="g102"
     transform="translate(1.5315488,8.16826)">
    <text
       y="192"
       x="381.51999"
       style="font-size:40px;font-family:Helvetica;fill:#000000;stroke:none"
       id="text42"
       font-size="40">
      <tspan
         id="tspan40"
         y="192"
         x="381.51999">Bouton</tspan>
    </text>
    <text
       y="144"
       x="384"
       style="font-size:40px;font-family:Helvetica;fill:#000000;stroke:none"
       id="text48"
       font-size="40">
      <tspan
         id="tspan46"
         y="144"
         x="384">Aimant</tspan>
    </text>
  </g>
  <path
     style="fill:none;stroke:#000000;stroke-width:2;stroke-linecap:round;stroke-linejoin:bevel"
     inkscape:connector-curvature="0"
     id="path52"
     d="M 0,224 V 0 h 528 v 224 z" />
</svg>

<svg xmlns="http://www.w3.org/2000/svg"
   xmlns:xlink="http://www.w3.org/1999/xlink"
   version="1.1"
   id="driven-pendulum" width="100%" height="100%"  viewBox="-6 -6 534 230">
<desc>
XCircuit Version 3.7
File "driven-pendulum.ps" Page 1
</desc>
<g stroke="black">
<path d="M192,128 L192,112 288,112 288,128 z" fill="none" stroke-width="2" stroke-linejoin="bevel" stroke-linecap="round" stroke="#000000" />
<path d="M192,192 L192,208 288,208 288,192 z" fill="none" stroke-width="2" stroke-linejoin="bevel" stroke-linecap="round" stroke="#000000" />
<path d="M352,32 L352,128 " fill="none" stroke-width="2" stroke-linejoin="bevel" stroke-linecap="round" stroke="#000000" />
<path d="M336,128 L336,192 368,192 368,128 z" fill="none" stroke-width="2" stroke-linejoin="bevel" stroke-linecap="round" stroke="#000000" />
<path d="M336,32 L368,32 " fill="none" stroke-width="2" stroke-linejoin="bevel" stroke-linecap="round" stroke="#000000" />
<g transform="matrix(   1    0   -0    1  32 112)" fill="#000000" >
<text stroke="none" font-family="Helvetica" font-size="40" ><tspan x="0" y="0">SQ1</tspan>
</text></g>
<g transform="matrix(   1    0   -0    1  32 192)" fill="#000000" >
<text stroke="none" font-family="Helvetica" font-size="40" ><tspan x="0" y="0">GND</tspan>
</text></g>
<path d="M16,144 L16,208 128,208 128,144 z" fill="none" stroke-width="2" stroke-linejoin="bevel" stroke-linecap="round" stroke="#000000" />
<path d="M192,192 L128,192 " fill="none" stroke-width="2" stroke-linejoin="bevel" stroke-linecap="round" stroke="#000000" />
<path d="M16,64 L16,128 128,128 128,64 z" fill="none" stroke-width="2" stroke-linejoin="bevel" stroke-linecap="round" stroke="#000000" />
<path d="M192,112 L128,112 " fill="none" stroke-width="2" stroke-linejoin="bevel" stroke-linecap="round" stroke="#000000" />
<g transform="matrix(   1    0   -0    1 176  96)" fill="#000000" >
<text stroke="none" font-family="Helvetica" font-size="40" ><tspan x="0" y="0">COIL</tspan>
</text></g>
<g transform="matrix(   1    0   -0    1 384 192)" fill="#000000" >
<text stroke="none" font-family="Helvetica" font-size="40" ><tspan x="0" y="0">Magnet</tspan>
</text></g>
<g transform="matrix(   1    0   -0    1 384 144)" fill="#000000" >
<text stroke="none" font-family="Helvetica" font-size="40" ><tspan x="0" y="0">Button</tspan>
</text></g>
<path d="M0,224 L0,0 528,0 528,224 z" fill="none" stroke-width="2" stroke-linejoin="bevel" stroke-linecap="round" stroke="#000000" />
</g>
</svg>
